src/cmd/sc_splittable.svg

<svg viewBox="0 0 16 16" xmlns="http://www.w3.org/2000/svg"><path d="m2 2v3h1v-2h3v2h1v-2h2v2h1v-2h1 1 1v2h1v-3zm0 9v3h1 6 1 3 1v-3h-1v2h-1-1-1v-2h-1v2h-2v-2h-1v2h-3v-2z" fill="#232629"/><path d="m2 5v6h12v-6zm1 1h10l-2 2 2 2h-10l2-2z" fill="#c7162b"/></svg>

<?xml version="1.0" encoding="UTF-8" standalone="no"?>
<svg
   xmlns:dc="http://purl.org/dc/elements/1.1/"
   xmlns:cc="http://creativecommons.org/ns#"
   xmlns:rdf="http://www.w3.org/1999/02/22-rdf-syntax-ns#"
   xmlns:svg="http://www.w3.org/2000/svg"
   xmlns="http://www.w3.org/2000/svg"
   xmlns:sodipodi="http://sodipodi.sourceforge.net/DTD/sodipodi-0.dtd"
   xmlns:inkscape="http://www.inkscape.org/namespaces/inkscape"
   viewBox="0 0 16 16"
   version="1.1"
   id="svg6"
   sodipodi:docname="sc_splittable.svg"
   inkscape:version="0.92.4 (5da689c313, 2019-01-14)">
  <metadata
     id="metadata12">
    <rdf:RDF>
      <cc:Work
         rdf:about="">
        <dc:format>image/svg+xml</dc:format>
        <dc:type
           rdf:resource="http://purl.org/dc/dcmitype/StillImage" />
      </cc:Work>
    </rdf:RDF>
  </metadata>
  <defs
     id="defs10" />
  <sodipodi:namedview
     pagecolor="#ffffff"
     bordercolor="#666666"
     borderopacity="1"
     objecttolerance="10"
     gridtolerance="10"
     guidetolerance="10"
     inkscape:pageopacity="0"
     inkscape:pageshadow="2"
     inkscape:window-width="1920"
     inkscape:window-height="1011"
     id="namedview8"
     showgrid="true"
     inkscape:zoom="59"
     inkscape:cx="3.485561"
     inkscape:cy="3.4758072"
     inkscape:window-x="1920"
     inkscape:window-y="32"
     inkscape:window-maximized="1"
     inkscape:current-layer="svg6">
    <inkscape:grid
       type="xygrid"
       id="grid822" />
  </sodipodi:namedview>
  <path
     d="M 2,4 V 5 H 3 V 4 C 3,3 4,3 5,3 H 6 V 5 H 7 V 3 h 2 v 2 h 1 V 3 h 1 c 1,0 2,0 2,1 v 1 h 1 V 4 C 14,2 13,2 11,2 H 5 C 3,2 2,2 2,4 Z m 0,7 v 1 c 0,2 1,2 3,2 h 4 1 1 c 2,0 3,0 3,-2 v -1 h -1 v 1 c 0,1 -1,1 -2,1 H 10 V 11 H 9 v 2 H 7 V 11 H 6 v 2 H 5 C 4,13 3,13 3,12 v -1 z"
     id="path2"
     inkscape:connector-curvature="0"
     style="fill:#232629"
     sodipodi:nodetypes="cccccccccccccccccccccccccccccccccccccccccccc" />
  <path
     d="m2 5v6h12v-6zm1 1h10l-2 2 2 2h-10l2-2z"
     fill="#c7162b"
     id="path4" />
</svg>
